; generated by PrusaSlicer 2.9.2 on 2025-05-25 at 17:02:53 UTC


;
;
; 

; external perimeters extrusion width = 0.45mm
; perimeters extrusion width = 0.45mm
; infill extrusion width = 0.45mm
; solid infill extrusion width = 0.45mm
; top infill extrusion width = 0.40mm
; first layer extrusion width = 0.42mm

M73 P0 R23
M73 Q0 S23
M201 X1000 Y1000 Z200 E5000 ; sets maximum accelerations, mm/sec^2
M203 X200 Y200 Z12 E120 ; sets maximum feedrates, mm / sec
M204 S1250 T1250 ; sets acceleration (S) and retract acceleration (R), mm/sec^2
M205 X8.00 Y8.00 Z0.40 E4.50 ; sets the jerk limits, mm/sec
M205 S0 T0 ; sets the minimum extruding and travel feed rate, mm/sec

; printing object wireGuide id:0 copy 0
; stop printing object wireGuide id:0 copy 0

;TYPE:Custom
M862.3 P "MK3S" ; printer model check
M862.1 P0.4 ; nozzle diameter check
M115 U3.14.1 ; tell printer latest fw version
G90 ; use absolute coordinates
M83 ; extruder relative mode
M104 S215 ; set extruder temp
M140 S60 ; set bed temp
M190 S60 ; wait for bed temp
M109 S215 ; wait for extruder temp
G28 W ; home all without mesh bed level
G80 X106.623 Y87.6229 W36.7542 H34.7542 ; mesh bed levelling

G1 Z0.2 F720
G1 Y-3 F1000 ; go outside print area
G92 E0
G1 X60 E9 F1000 ; intro line
G1 X100 E12.5 F1000 ; intro line

G92 E0
M221 S95

; Don't change E values below. Excessive value can damage the printer.
M907 E430 ; set extruder motor current
G21 ; set units to millimeters
G90 ; use absolute coordinates
M83 ; use relative distances for extrusion

M900 K0.05 ; Filament gcode LA 1.5
M900 K30 ; Filament gcode LA 1.0




M107
;LAYER_CHANGE
;Z:0.2
;HEIGHT:0.2
G1 E-.8 F2100
G1 Z.6 F720
G1 X107.202 Y88.752 F10800
G1 Z.2 F720
G1 E.8 F2100
M204 S800
;TYPE:Skirt/Brim
;WIDTH:0.42
G1 F1200
G1 X108.235 Y87.949 E.04102
G1 X109 Y87.811 E.02437
G1 X141 Y87.811 E1.00334
G1 X142.248 Y88.202 E.04101
G1 X143.051 Y89.235 E.04102
G1 X143.189 Y90 E.02437
G1 X143.189 Y120 E.94063
G1 X142.798 Y121.248 E.04101
G1 X141.765 Y122.051 E.04102
G1 X141 Y122.189 E.02437
G1 X109 Y122.189 E1.00334
G1 X107.752 Y121.798 E.04101
G1 X106.949 Y120.765 E.04102
G1 X106.811 Y120 E.02437
G1 X106.811 Y90 E.94063
G1 X107.184 Y88.809 E.03913
M73 Q1 S23
M204 S1000
;WIPE_START
G1 F8640
M73 P1 R23
G1 X107.202 Y88.752 E-.0138
G1 X108.235 Y87.949 E-.30211
G1 X109 Y87.811 E-.17949
G1 X110.319 Y87.811 E-.3046
;WIPE_END
G1 Z.6 F720
; printing object wireGuide id:0 copy 0
G1 X140.213 Y119.213 F10800
G1 Z.2 F720
G1 E.8 F2100
M204 S800
;TYPE:Perimeter
;WIDTH:0.419999
G1 F1200
G1 X109.787 Y119.213 E.95398
G1 X109.787 Y90.787 E.89128
G1 X140.213 Y90.787 E.95398
G1 X140.213 Y105 E.44564
M73 P1 R22
G1 X140.213 Y119.153 E.44376
M204 S1000
G1 X140.59 Y119.59 F10800
M204 S800
;TYPE:External perimeter
G1 F1200
G1 X109.41 Y119.59 E.97763
G1 X109.41 Y90.41 E.91492
G1 X140.59 Y90.41 E.97763
G1 X140.59 Y105 E.45746
G1 X140.59 Y119.53 E.45558
M73 Q1 S22
M204 S1000
;WIPE_START
G1 F8640
G1 X140.59 Y119.59 E-.01385
G1 X137.185 Y119.59 E-.78615
;WIPE_END
G1 Z.6 F720
G1 X140.043 Y91.721 F10800
G1 Z.2 F720
G1 E.8 F2100
M204 S800
;TYPE:Solid infill
;WIDTH:0.420789
G1 F1200
G1 X139.449 Y91.126 E.02642
G1 X138.915 Y91.126 E.01678
G1 X139.874 Y92.085 E.04261
G1 X139.874 Y92.62 E.01681
G1 X138.38 Y91.126 E.06639
G1 X137.846 Y91.126 E.01678
M73 Q2 S22
G1 X139.874 Y93.154 E.09011
G1 X139.874 Y93.689 E.01681
G1 X137.311 Y91.126 E.11389
G1 X136.777 Y91.126 E.01678
M73 P2 R22
G1 X139.874 Y94.223 E.13761
G1 X139.874 Y94.757 E.01678
G1 X136.243 Y91.126 E.16134
G1 X135.708 Y91.126 E.01681
G1 X139.874 Y95.292 E.18511
G1 X139.874 Y95.826 E.01678
G1 X135.174 Y91.126 E.20884
G1 X134.639 Y91.126 E.01681
G1 X139.874 Y96.361 E.23261
G1 X139.874 Y96.895 E.01678
G1 X134.105 Y91.126 E.25634
G1 X133.571 Y91.126 E.01678
G1 X139.874 Y97.429 E.28007
G1 X139.874 Y97.964 E.01681
G1 X133.036 Y91.126 E.30384
G1 X132.502 Y91.126 E.01678
G1 X139.874 Y98.498 E.32757
G1 X139.874 Y99.032 E.01678
G1 X131.968 Y91.126 E.3513
G1 X131.433 Y91.126 E.01681
G1 X139.874 Y99.567 E.37507
G1 X139.874 Y100.101 E.01678
G1 X130.899 Y91.126 E.3988
G1 X130.364 Y91.126 E.01681
G1 X139.874 Y100.636 E.42257
G1 X139.874 Y101.17 E.01678
G1 X129.83 Y91.126 E.4463
G1 X129.296 Y91.126 E.01678
G1 X139.874 Y101.704 E.47003
G1 X139.874 Y102.239 E.01681
G1 X128.761 Y91.126 E.4938
G1 X128.227 Y91.126 E.01678
G1 X139.874 Y102.773 E.51753
G1 X139.874 Y103.308 E.01681
G1 X127.692 Y91.126 E.5413
G1 X127.158 Y91.126 E.01678
G1 X139.874 Y103.842 E.56503
G1 X139.874 Y104.376 E.01678
G1 X126.624 Y91.126 E.58876
G1 X126.089 Y91.126 E.01681
G1 X139.874 Y104.911 E.61253
G1 X139.874 Y105.445 E.01678
G1 X125.555 Y91.126 E.63626
G1 X125.021 Y91.126 E.01678
M73 P3 R22
M73 Q3 S22
G1 X139.874 Y105.979 E.65999
G1 X139.874 Y106.514 E.01681
G1 X124.486 Y91.126 E.68376
G1 X123.952 Y91.126 E.01678
G1 X139.874 Y107.048 E.70749
G1 X139.874 Y107.583 E.01681
G1 X123.417 Y91.126 E.73126
G1 X122.883 Y91.126 E.01678
G1 X139.874 Y108.117 E.75499
G1 X139.874 Y108.651 E.01678
G1 X122.349 Y91.126 E.77871
G1 X121.814 Y91.126 E.01681
G1 X139.874 Y109.186 E.80249
G1 X139.874 Y109.72 E.01678
G1 X121.28 Y91.126 E.82622
G1 X120.745 Y91.126 E.01681
G1 X139.874 Y110.255 E.84999
G1 X139.874 Y110.789 E.01678
G1 X120.211 Y91.126 E.87372
G1 X119.677 Y91.126 E.01678
G1 X139.874 Y111.323 E.89744
G1 X139.874 Y111.858 E.01681
M73 P4 R22
M73 Q4 S22
G1 X119.142 Y91.126 E.92122
G1 X118.608 Y91.126 E.01678
G1 X139.874 Y112.392 E.94494
G1 X139.874 Y112.927 E.01681
G1 X118.073 Y91.126 E.96872
G1 X117.539 Y91.126 E.01678
G1 X139.874 Y113.461 E.99244
G1 X139.874 Y113.995 E.01678
G1 X117.005 Y91.126 E1.01617
G1 X116.47 Y91.126 E.01681
G1 X139.874 Y114.53 E1.03995
G1 X139.874 Y115.064 E.01678
G1 X115.936 Y91.126 E1.06367
G1 X115.402 Y91.126 E.01678
G1 X139.874 Y115.598 E1.0874
G1 X139.874 Y116.133 E.01681
G1 X114.867 Y91.126 E1.11117
G1 X114.333 Y91.126 E.01678
M73 P5 R22
M73 Q5 S22
G1 X139.874 Y116.667 E1.1349
G1 X139.874 Y117.202 E.01681
G1 X113.798 Y91.126 E1.15867
G1 X113.264 Y91.126 E.01678
G1 X139.874 Y117.736 E1.1824
G1 X139.874 Y118.27 E.01678
G1 X112.73 Y91.126 E1.20613
G1 X112.195 Y91.126 E.01681
M73 P5 R21
G1 X139.874 Y118.805 E1.2299
G1 X139.874 Y118.874 E.00217
G1 X139.408 Y118.874 E.01464
G1 X111.661 Y91.126 E1.23295
G1 X111.126 Y91.126 E.01681
G1 X138.874 Y118.874 E1.23297
G1 X138.339 Y118.874 E.01681
M73 P6 R21
M73 Q6 S22
G1 X110.592 Y91.126 E1.23295
G1 X110.126 Y91.126 E.01464
M73 Q6 S21
G1 X110.126 Y91.195 E.00217
G1 X137.805 Y118.874 E1.2299
G1 X137.27 Y118.874 E.01681
G1 X110.126 Y91.73 E1.20613
G1 X110.126 Y92.264 E.01678
G1 X136.736 Y118.874 E1.1824
G1 X136.202 Y118.874 E.01678
G1 X110.126 Y92.798 E1.15867
G1 X110.126 Y93.333 E.01681
G1 X135.667 Y118.874 E1.1349
G1 X135.133 Y118.874 E.01678
G1 X110.126 Y93.867 E1.11117
G1 X110.126 Y94.402 E.01681
M73 P7 R21
M73 Q7 S21
G1 X134.598 Y118.874 E1.0874
G1 X134.064 Y118.874 E.01678
G1 X110.126 Y94.936 E1.06367
G1 X110.126 Y95.47 E.01678
G1 X133.53 Y118.874 E1.03995
G1 X132.995 Y118.874 E.01681
G1 X110.126 Y96.005 E1.01617
G1 X110.126 Y96.539 E.01678
G1 X132.461 Y118.874 E.99244
G1 X131.927 Y118.874 E.01678
G1 X110.126 Y97.073 E.96872
G1 X110.126 Y97.608 E.01681
G1 X131.392 Y118.874 E.94494
G1 X130.858 Y118.874 E.01678
G1 X110.126 Y98.142 E.92122
G1 X110.126 Y98.677 E.01681
G1 X130.323 Y118.874 E.89744
G1 X129.789 Y118.874 E.01678
M73 P8 R21
M73 Q8 S21
G1 X110.126 Y99.211 E.87372
G1 X110.126 Y99.745 E.01678
G1 X129.255 Y118.874 E.84999
G1 X128.72 Y118.874 E.01681
G1 X110.126 Y100.28 E.82622
G1 X110.126 Y100.814 E.01678
G1 X128.186 Y118.874 E.80249
G1 X127.651 Y118.874 E.01681
G1 X110.126 Y101.349 E.77871
G1 X110.126 Y101.883 E.01678
G1 X127.117 Y118.874 E.75499
G1 X126.583 Y118.874 E.01678
G1 X110.126 Y102.417 E.73126
G1 X110.126 Y102.952 E.01681
G1 X126.048 Y118.874 E.70749
G1 X125.514 Y118.874 E.01678
G1 X110.126 Y103.486 E.68376
G1 X110.126 Y104.021 E.01681
G1 X124.979 Y118.874 E.65999
G1 X124.445 Y118.874 E.01678
G1 X110.126 Y104.555 E.63626
M73 P9 R21
G1 X110.126 Y105.089 E.01678
M73 Q9 S21
G1 X123.911 Y118.874 E.61253
G1 X123.376 Y118.874 E.01681
G1 X110.126 Y105.624 E.58876
G1 X110.126 Y106.158 E.01678
G1 X122.842 Y118.874 E.56503
G1 X122.308 Y118.874 E.01678
G1 X110.126 Y106.692 E.5413
G1 X110.126 Y107.227 E.01681
G1 X121.773 Y118.874 E.51753
G1 X121.239 Y118.874 E.01678
G1 X110.126 Y107.761 E.4938
G1 X110.126 Y108.296 E.01681
G1 X120.704 Y118.874 E.47003
G1 X120.17 Y118.874 E.01678
G1 X110.126 Y108.83 E.4463
G1 X110.126 Y109.364 E.01678
G1 X119.636 Y118.874 E.42257
G1 X119.101 Y118.874 E.01681
G1 X110.126 Y109.899 E.3988
G1 X110.126 Y110.433 E.01678
G1 X118.567 Y118.874 E.37507
G1 X118.032 Y118.874 E.01681
G1 X110.126 Y110.968 E.3513
G1 X110.126 Y111.502 E.01678
G1 X117.498 Y118.874 E.32757
G1 X116.964 Y118.874 E.01678
G1 X110.126 Y112.036 E.30384
G1 X110.126 Y112.571 E.01681
G1 X116.429 Y118.874 E.28007
G1 X115.895 Y118.874 E.01678
M73 P9 R20
G1 X110.126 Y113.105 E.25634
G1 X110.126 Y113.64 E.01681
G1 X115.36 Y118.874 E.23257
G1 X114.826 Y118.874 E.01678
G1 X110.126 Y114.174 E.20884
G1 X110.126 Y114.708 E.01678
G1 X114.292 Y118.874 E.18511
G1 X113.757 Y118.874 E.01681
G1 X110.126 Y115.243 E.16134
G1 X110.126 Y115.777 E.01678
M73 P10 R20
G1 X113.223 Y118.874 E.13761
G1 X112.689 Y118.874 E.01678
M73 Q10 S21
G1 X110.126 Y116.311 E.11389
G1 X110.126 Y116.846 E.01681
G1 X112.154 Y118.874 E.09011
G1 X111.62 Y118.874 E.01678
G1 X110.126 Y117.38 E.06639
G1 X110.126 Y117.915 E.01681
G1 X111.085 Y118.874 E.04261
G1 X110.551 Y118.874 E.01678
G1 X109.957 Y118.279 E.02642
M204 S1000
M106 S84.15
;LAYER_CHANGE
;Z:0.35
;HEIGHT:0.15
;BEFORE_LAYER_CHANGE
G92 E0.0
;0.35


;WIPE_START
G1 F8640
G1 X110.551 Y118.874 E-.19413
G1 X111.085 Y118.874 E-.1233
G1 X110.126 Y117.915 E-.31316
G1 X110.126 Y117.38 E-.12353
G1 X110.266 Y117.52 E-.04588
;WIPE_END
G1 Z.35 F720
;AFTER_LAYER_CHANGE
;0.35
M104 S210 ; set temperature
; stop printing object wireGuide id:0 copy 0
G1 Z.75
G1 X106.811 Y118.279 F10800
G1 Z.35 F720
G1 E.8 F2100
;TYPE:Skirt/Brim
;WIDTH:0.42
G1 F3000
G1 X106.811 Y90 E.68392
G1 X107.202 Y88.752 E.03163
G1 X108.235 Y87.949 E.03164
G1 X109 Y87.811 E.0188
G1 X141 Y87.811 E.77392
G1 X142.248 Y88.202 E.03163
G1 X143.051 Y89.235 E.03164
G1 X143.189 Y90 E.0188
G1 X143.189 Y120 E.72555
G1 X142.798 Y121.248 E.03163
G1 X141.765 Y122.051 E.03164
G1 X141 Y122.189 E.0188
G1 X109 Y122.189 E.77392
G1 X107.752 Y121.798 E.03163
G1 X106.949 Y120.765 E.03164
G1 X106.811 Y120 E.0188
G1 X106.811 Y118.339 E.04017
;WIPE_START
G1 F8640
G1 X106.811 Y118.279 E-.01385
G1 X106.811 Y114.874 E-.78615
;WIPE_END
G1 Z.75 F720
; printing object wireGuide id:0 copy 0
G1 X140.357 Y119.357 F10800
G1 Z.35 F720
G1 E.8 F2100
M204 S800
;TYPE:Perimeter
;WIDTH:0.449999
G1 F2253.918
G1 X109.643 Y119.357 E.80028
G1 X109.643 Y90.643 E.74816
M73 Q10 S20
G1 X140.357 Y90.643 E.80028
G1 F2262.056
G1 X140.357 Y119.297 E.7466
M204 S1000
G1 X140.775 Y119.775 F10800
M204 S800
;TYPE:External perimeter
G1 F1500
G1 X140.1 Y119.775 E.01759
G1 X109.9 Y119.775 E.78688
G1 X109.225 Y119.775 E.01759
G1 X109.225 Y119.1 E.01759
G1 X109.225 Y90.9 E.73477
G1 X109.225 Y90.225 E.01759
G1 X109.9 Y90.225 E.01759
G1 X140.1 Y90.225 E.78688
G1 X140.775 Y90.225 E.01759
G1 X140.775 Y90.9 E.01759
G1 X140.775 Y119.1 E.73477
G1 X140.775 Y119.715 E.01602
M204 S1000
;WIPE_START
G1 F8640
G1 X140.775 Y119.775 E-.01385
G1 X140.1 Y119.775 E-.15586
G1 X137.37 Y119.775 E-.63029
;WIPE_END
G1 Z.75 F720
G1 X110.132 Y91.053 F10800
G1 Z.35 F720
M73 P11 R20
G1 E.8 F2100
;TYPE:Solid infill
;WIDTH:0.55137
G1 F4800
G1 X110.086 Y91.007 E.00211
G1 X110.024 Y91.024 E.00208
G1 X110.007 Y91.086 E.00208
G1 X110.053 Y91.132 E.00211
G1 X110.115 Y91.115 E.00208
;WIDTH:0.449999
G1 X110.019 Y91.783 E.01758
G1 X110.783 Y91.019 E.02815
M73 Q11 S20
G1 X111.374 Y91.019 E.0154
G1 X110.019 Y92.374 E.04993
G1 X110.019 Y92.965 E.0154
G1 X111.965 Y91.019 E.07171
G1 X112.555 Y91.019 E.01537
G1 X110.019 Y93.555 E.09345
G1 X110.019 Y94.146 E.0154
G1 X113.146 Y91.019 E.11522
G1 X113.737 Y91.019 E.0154
G1 X110.019 Y94.737 E.137
G1 X110.019 Y95.328 E.0154
G1 X114.328 Y91.019 E.15878
G1 X114.919 Y91.019 E.0154
G1 X110.019 Y95.919 E.18056
G1 X110.019 Y96.51 E.0154
G1 X115.51 Y91.019 E.20233
G1 X116.101 Y91.019 E.0154
G1 X110.019 Y97.101 E.22411
G1 X110.019 Y97.691 E.01537
G1 X116.691 Y91.019 E.24585
G1 X117.282 Y91.019 E.0154
G1 X110.019 Y98.282 E.26763
G1 X110.019 Y98.873 E.0154
G1 X117.873 Y91.019 E.28941
G1 X118.464 Y91.019 E.0154
G1 X110.019 Y99.464 E.31118
G1 X110.019 Y100.055 E.0154
G1 X119.055 Y91.019 E.33296
G1 X119.646 Y91.019 E.0154
G1 X110.019 Y100.646 E.35474
G1 X110.019 Y101.237 E.0154
G1 X120.237 Y91.019 E.37652
G1 X120.828 Y91.019 E.0154
G1 X110.019 Y101.828 E.39829
G1 X110.019 Y102.418 E.01537
G1 X121.418 Y91.019 E.42003
G1 X122.009 Y91.019 E.0154
G1 X110.019 Y103.009 E.44181
G1 X110.019 Y103.6 E.0154
G1 X122.6 Y91.019 E.46359
G1 X123.191 Y91.019 E.0154
G1 X110.019 Y104.191 E.48537
G1 X110.019 Y104.782 E.0154
G1 X123.782 Y91.019 E.50714
G1 X124.373 Y91.019 E.0154
G1 X110.019 Y105.373 E.52892
G1 X110.019 Y105.964 E.0154
G1 X124.964 Y91.019 E.5507
G1 X125.555 Y91.019 E.0154
G1 X110.019 Y106.555 E.57248
G1 X110.019 Y107.145 E.01537
G1 X126.145 Y91.019 E.59422
G1 X126.736 Y91.019 E.0154
G1 X110.019 Y107.736 E.61599
G1 X110.019 Y108.327 E.0154
G1 X127.327 Y91.019 E.63777
G1 X127.918 Y91.019 E.0154
G1 X110.019 Y108.918 E.65955
G1 X110.019 Y109.509 E.0154
G1 X128.509 Y91.019 E.68133
G1 X129.1 Y91.019 E.0154
G1 X110.019 Y110.1 E.7031
G1 X110.019 Y110.691 E.0154
G1 X129.691 Y91.019 E.72488
G1 X130.282 Y91.019 E.0154
G1 X110.019 Y111.282 E.74666
G1 X110.019 Y111.872 E.01537
G1 X130.872 Y91.019 E.7684
G1 X131.463 Y91.019 E.0154
G1 X110.019 Y112.463 E.79018
G1 X110.019 Y113.054 E.0154
G1 X132.054 Y91.019 E.81195
G1 X132.645 Y91.019 E.0154
G1 X110.019 Y113.645 E.83373
G1 X110.019 Y114.236 E.0154
G1 X133.236 Y91.019 E.85551
G1 X133.827 Y91.019 E.0154
G1 X110.019 Y114.827 E.87729
G1 X110.019 Y115.418 E.0154
G1 X134.418 Y91.019 E.89906
G1 X135.008 Y91.019 E.01537
G1 X110.019 Y116.008 E.9208
G1 X110.019 Y116.599 E.0154
G1 X135.599 Y91.019 E.94258
G1 X136.19 Y91.019 E.0154
M73 P12 R20
G1 X110.019 Y117.19 E.96436
M73 Q12 S20
G1 X110.019 Y117.781 E.0154
G1 X136.781 Y91.019 E.98614
G1 X137.372 Y91.019 E.0154
G1 X110.019 Y118.372 E1.00791
G1 X110.019 Y118.963 E.0154
G1 X137.963 Y91.019 E1.02969
G1 X138.554 Y91.019 E.0154
G1 X110.591 Y118.981 E1.03037
G1 X111.182 Y118.981 E.0154
G1 X139.145 Y91.019 E1.03037
G1 X139.735 Y91.019 E.01537
G1 X111.773 Y118.981 E1.03035
G1 X112.364 Y118.981 E.0154
G1 X139.981 Y91.364 E1.01764
G1 X139.981 Y91.955 E.0154
G1 X112.955 Y118.981 E.99586
G1 X113.546 Y118.981 E.0154
G1 X139.981 Y92.546 E.97409
G1 X139.981 Y93.137 E.0154
G1 X114.137 Y118.981 E.95231
G1 X114.727 Y118.981 E.01537
G1 X139.981 Y93.727 E.93057
G1 X139.981 Y94.318 E.0154
G1 X115.318 Y118.981 E.90879
G1 X115.909 Y118.981 E.0154
G1 X139.981 Y94.909 E.88701
G1 X139.981 Y95.5 E.0154
G1 X116.5 Y118.981 E.86524
G1 X117.091 Y118.981 E.0154
G1 X139.981 Y96.091 E.84346
G1 X139.981 Y96.682 E.0154
G1 X117.682 Y118.981 E.82168
G1 X118.273 Y118.981 E.0154
G1 X139.981 Y97.273 E.7999
G1 X139.981 Y97.864 E.0154
G1 X118.864 Y118.981 E.77813
G1 X119.454 Y118.981 E.01537
G1 X139.981 Y98.454 E.75639
G1 X139.981 Y99.045 E.0154
G1 X120.045 Y118.981 E.73461
G1 X120.636 Y118.981 E.0154
G1 X139.981 Y99.636 E.71283
G1 X139.981 Y100.227 E.0154
G1 X121.227 Y118.981 E.69105
G1 X121.818 Y118.981 E.0154
G1 X139.981 Y100.818 E.66928
G1 X139.981 Y101.409 E.0154
G1 X122.409 Y118.981 E.6475
G1 X123 Y118.981 E.0154
G1 X139.981 Y102 E.62572
G1 X139.981 Y102.591 E.0154
G1 X123.591 Y118.981 E.60394
G1 X124.181 Y118.981 E.01537
M73 P13 R20
G1 X139.981 Y103.181 E.5822
G1 X139.981 Y103.772 E.0154
M73 Q13 S20
G1 X124.772 Y118.981 E.56043
G1 X125.363 Y118.981 E.0154
G1 X139.981 Y104.363 E.53865
G1 X139.981 Y104.954 E.0154
G1 X125.954 Y118.981 E.51687
G1 X126.545 Y118.981 E.0154
G1 X139.981 Y105.545 E.49509
G1 X139.981 Y106.136 E.0154
G1 X127.136 Y118.981 E.47332
G1 X127.727 Y118.981 E.0154
G1 X139.981 Y106.727 E.45154
G1 X139.981 Y107.318 E.0154
