; generated by PrusaSlicer 2.9.2 on 2025-05-25 at 17:33:31 UTC


;
;
; 

; external perimeters extrusion width = 0.60mm
; perimeters extrusion width = 0.50mm
; infill extrusion width = 0.50mm
; solid infill extrusion width = 0.50mm
; top infill extrusion width = 0.45mm
; first layer extrusion width = 0.42mm

M73 P0 R7
M73 Q0 S7
M201 X1000 Y1000 Z200 E5000 ; sets maximum accelerations, mm/sec^2
M203 X200 Y200 Z12 E120 ; sets maximum feedrates, mm / sec
M204 S1250 T1250 ; sets acceleration (S) and retract acceleration (R), mm/sec^2
M205 X8.00 Y8.00 Z0.40 E4.50 ; sets the jerk limits, mm/sec
M205 S0 T0 ; sets the minimum extruding and travel feed rate, mm/sec

; printing object wireGuide id:0 copy 0
; stop printing object wireGuide id:0 copy 0

;TYPE:Custom
M862.3 P "MK3S" ; printer model check
M862.1 P0.4 ; nozzle diameter check
M115 U3.14.1 ; tell printer latest fw version
G90 ; use absolute coordinates
M83 ; extruder relative mode
M104 S215 ; set extruder temp
M140 S60 ; set bed temp
M190 S60 ; wait for bed temp
M109 S215 ; wait for extruder temp
G28 W ; home all without mesh bed level
G80 X106.623 Y87.6229 W36.7542 H34.7542 ; mesh bed levelling

G1 Z0.2 F720
G1 Y-3 F1000 ; go outside print area
G92 E0
G1 X60 E9 F1000 ; intro line
G1 X100 E12.5 F1000 ; intro line

G92 E0
M221 S95

; Don't change E values below. Excessive value can damage the printer.

M907 E538 ; set extruder motor current
G21 ; set units to millimeters
G90 ; use absolute coordinates
M83 ; use relative distances for extrusion

M900 K0.05 ; Filament gcode LA 1.5
M900 K30 ; Filament gcode LA 1.0




M107
;LAYER_CHANGE
;Z:0.2
;HEIGHT:0.2
G1 E-.8 F2100
M73 P1 R7
M73 Q1 S7
G1 Z.6 F720
G1 X107.202 Y88.752 F10800
G1 Z.2 F720
G1 E.8 F2100
M204 S800
;TYPE:Skirt/Brim
;WIDTH:0.42
G1 F1200
G1 X108.235 Y87.949 E.04102
G1 X109 Y87.811 E.02437
G1 X141 Y87.811 E1.00334
G1 X142.248 Y88.202 E.04101
M73 Q2 S7
G1 X143.051 Y89.235 E.04102
G1 X143.189 Y90 E.02437
G1 X143.189 Y120 E.94063
G1 X142.798 Y121.248 E.04101
M73 P2 R7
G1 X141.765 Y122.051 E.04102
G1 X141 Y122.189 E.02437
G1 X109 Y122.189 E1.00334
G1 X107.752 Y121.798 E.04101
G1 X106.949 Y120.765 E.04102
G1 X106.811 Y120 E.02437
G1 X106.811 Y90 E.94063
G1 X107.184 Y88.809 E.03913
M73 P3 R7
M73 Q3 S7
M204 S1000
;WIPE_START
G1 F8640
G1 X107.202 Y88.752 E-.0138
G1 X108.235 Y87.949 E-.30211
G1 X109 Y87.811 E-.17949
G1 X110.319 Y87.811 E-.3046
;WIPE_END
G1 Z.6 F720
; printing object wireGuide id:0 copy 0
G1 X140.213 Y119.213 F10800
G1 Z.2 F720
G1 E.8 F2100
M204 S800
;TYPE:Perimeter
;WIDTH:0.419999
G1 F1200
G1 X109.787 Y119.213 E.95398
G1 X109.787 Y90.787 E.89128
G1 X140.213 Y90.787 E.95398
G1 X140.213 Y105 E.44564
M73 P4 R7
M73 Q4 S7
G1 X140.213 Y119.153 E.44376
M204 S1000
G1 X140.59 Y119.59 F10800
M204 S800
;TYPE:External perimeter
G1 F1200
G1 X109.41 Y119.59 E.97763
G1 X109.41 Y90.41 E.91492
G1 X140.59 Y90.41 E.97763
M73 P5 R7
M73 Q5 S7
G1 X140.59 Y105 E.45746
G1 X140.59 Y119.53 E.45558
M204 S1000
;WIPE_START
G1 F8640
G1 X140.59 Y119.59 E-.01385
G1 X137.185 Y119.59 E-.78615
;WIPE_END
G1 Z.6 F720
G1 X140.043 Y91.721 F10800
M73 Q6 S7
G1 Z.2 F720
M73 P6 R7
G1 E.8 F2100
M204 S800
;TYPE:Solid infill
;WIDTH:0.420789
G1 F1200
G1 X139.449 Y91.126 E.02642
G1 X138.915 Y91.126 E.01678
G1 X139.874 Y92.085 E.04261
G1 X139.874 Y92.62 E.01681
G1 X138.38 Y91.126 E.06639
G1 X137.846 Y91.126 E.01678
G1 X139.874 Y93.154 E.09011
G1 X139.874 Y93.689 E.01681
G1 X137.311 Y91.126 E.11389
G1 X136.777 Y91.126 E.01678
G1 X139.874 Y94.223 E.13761
G1 X139.874 Y94.757 E.01678
G1 X136.243 Y91.126 E.16134
G1 X135.708 Y91.126 E.01681
G1 X139.874 Y95.292 E.18511
G1 X139.874 Y95.826 E.01678
G1 X135.174 Y91.126 E.20884
G1 X134.639 Y91.126 E.01681
G1 X139.874 Y96.361 E.23261
G1 X139.874 Y96.895 E.01678
G1 X134.105 Y91.126 E.25634
G1 X133.571 Y91.126 E.01678
G1 X139.874 Y97.429 E.28007
G1 X139.874 Y97.964 E.01681
G1 X133.036 Y91.126 E.30384
G1 X132.502 Y91.126 E.01678
G1 X139.874 Y98.498 E.32757
G1 X139.874 Y99.032 E.01678
M73 P7 R7
M73 Q7 S7
G1 X131.968 Y91.126 E.3513
G1 X131.433 Y91.126 E.01681
G1 X139.874 Y99.567 E.37507
G1 X139.874 Y100.101 E.01678
M73 P7 R6
G1 X130.899 Y91.126 E.3988
G1 X130.364 Y91.126 E.01681
G1 X139.874 Y100.636 E.42257
G1 X139.874 Y101.17 E.01678
G1 X129.83 Y91.126 E.4463
G1 X129.296 Y91.126 E.01678
G1 X139.874 Y101.704 E.47003
M73 Q7 S6
G1 X139.874 Y102.239 E.01681
G1 X128.761 Y91.126 E.4938
M73 Q8 S6
G1 X128.227 Y91.126 E.01678
M73 P8 R6
G1 X139.874 Y102.773 E.51753
G1 X139.874 Y103.308 E.01681
G1 X127.692 Y91.126 E.5413
G1 X127.158 Y91.126 E.01678
G1 X139.874 Y103.842 E.56503
G1 X139.874 Y104.376 E.01678
G1 X126.624 Y91.126 E.58876
G1 X126.089 Y91.126 E.01681
G1 X139.874 Y104.911 E.61253
G1 X139.874 Y105.445 E.01678
M73 P9 R6
M73 Q9 S6
G1 X125.555 Y91.126 E.63626
G1 X125.021 Y91.126 E.01678
G1 X139.874 Y105.979 E.65999
G1 X139.874 Y106.514 E.01681
G1 X124.486 Y91.126 E.68376
G1 X123.952 Y91.126 E.01678
G1 X139.874 Y107.048 E.70749
G1 X139.874 Y107.583 E.01681
M73 P10 R6
M73 Q10 S6
G1 X123.417 Y91.126 E.73126
G1 X122.883 Y91.126 E.01678
G1 X139.874 Y108.117 E.75499
G1 X139.874 Y108.651 E.01678
G1 X122.349 Y91.126 E.77871
G1 X121.814 Y91.126 E.01681
M73 Q11 S6
G1 X139.874 Y109.186 E.80249
G1 X139.874 Y109.72 E.01678
M73 P11 R6
G1 X121.28 Y91.126 E.82622
G1 X120.745 Y91.126 E.01681
G1 X139.874 Y110.255 E.84999
G1 X139.874 Y110.789 E.01678
G1 X120.211 Y91.126 E.87372
G1 X119.677 Y91.126 E.01678
M73 P12 R6
M73 Q12 S6
G1 X139.874 Y111.323 E.89744
G1 X139.874 Y111.858 E.01681
G1 X119.142 Y91.126 E.92122
G1 X118.608 Y91.126 E.01678
G1 X139.874 Y112.392 E.94494
G1 X139.874 Y112.927 E.01681
M73 P13 R6
M73 Q13 S6
G1 X118.073 Y91.126 E.96872
G1 X117.539 Y91.126 E.01678
G1 X139.874 Y113.461 E.99244
G1 X139.874 Y113.995 E.01678
G1 X117.005 Y91.126 E1.01617
G1 X116.47 Y91.126 E.01681
M73 P14 R6
M73 Q14 S6
G1 X139.874 Y114.53 E1.03995
G1 X139.874 Y115.064 E.01678
G1 X115.936 Y91.126 E1.06367
G1 X115.402 Y91.126 E.01678
M73 P15 R6
M73 Q15 S6
G1 X139.874 Y115.598 E1.0874
G1 X139.874 Y116.133 E.01681
G1 X114.867 Y91.126 E1.11117
G1 X114.333 Y91.126 E.01678
G1 X139.874 Y116.667 E1.1349
G1 X139.874 Y117.202 E.01681
M73 P16 R6
M73 Q16 S6
G1 X113.798 Y91.126 E1.15867
G1 X113.264 Y91.126 E.01678
G1 X139.874 Y117.736 E1.1824
G1 X139.874 Y118.27 E.01678
M73 P17 R6
M73 Q17 S6
G1 X112.73 Y91.126 E1.20613
G1 X112.195 Y91.126 E.01681
G1 X139.874 Y118.805 E1.2299
G1 X139.874 Y118.874 E.00217
G1 X139.408 Y118.874 E.01464
G1 X111.661 Y91.126 E1.23295
G1 X111.126 Y91.126 E.01681
M73 P18 R6
M73 Q18 S6
G1 X138.874 Y118.874 E1.23297
G1 X138.339 Y118.874 E.01681
G1 X110.592 Y91.126 E1.23295
G1 X110.126 Y91.126 E.01464
M73 P19 R6
M73 Q19 S6
G1 X110.126 Y91.195 E.00217
G1 X137.805 Y118.874 E1.2299
G1 X137.27 Y118.874 E.01681
G1 X110.126 Y91.73 E1.20613
G1 X110.126 Y92.264 E.01678
M73 P20 R6
M73 Q20 S6
G1 X136.736 Y118.874 E1.1824
G1 X136.202 Y118.874 E.01678
M73 P20 R5
G1 X110.126 Y92.798 E1.15867
G1 X110.126 Y93.333 E.01681
G1 X135.667 Y118.874 E1.1349
M73 P21 R5
G1 X135.133 Y118.874 E.01678
M73 Q21 S5
G1 X110.126 Y93.867 E1.11117
G1 X110.126 Y94.402 E.01681
G1 X134.598 Y118.874 E1.0874
G1 X134.064 Y118.874 E.01678
M73 P22 R5
M73 Q22 S5
G1 X110.126 Y94.936 E1.06367
G1 X110.126 Y95.47 E.01678
G1 X133.53 Y118.874 E1.03995
G1 X132.995 Y118.874 E.01681
G1 X110.126 Y96.005 E1.01617
G1 X110.126 Y96.539 E.01678
M73 P23 R5
M73 Q23 S5
G1 X132.461 Y118.874 E.99244
G1 X131.927 Y118.874 E.01678
G1 X110.126 Y97.073 E.96872
G1 X110.126 Y97.608 E.01681
M73 P24 R5
G1 X131.392 Y118.874 E.94494
G1 X130.858 Y118.874 E.01678
M73 Q24 S5
G1 X110.126 Y98.142 E.92122
G1 X110.126 Y98.677 E.01681
G1 X130.323 Y118.874 E.89744
G1 X129.789 Y118.874 E.01678
M73 P25 R5
G1 X110.126 Y99.211 E.87372
G1 X110.126 Y99.745 E.01678
M73 Q25 S5
G1 X129.255 Y118.874 E.84999
G1 X128.72 Y118.874 E.01681
G1 X110.126 Y100.28 E.82622
G1 X110.126 Y100.814 E.01678
G1 X128.186 Y118.874 E.80249
G1 X127.651 Y118.874 E.01681
M73 P26 R5
M73 Q26 S5
G1 X110.126 Y101.349 E.77871
G1 X110.126 Y101.883 E.01678
G1 X127.117 Y118.874 E.75499
G1 X126.583 Y118.874 E.01678
G1 X110.126 Y102.417 E.73126
G1 X110.126 Y102.952 E.01681
M73 P27 R5
G1 X126.048 Y118.874 E.70749
G1 X125.514 Y118.874 E.01678
M73 Q27 S5
G1 X110.126 Y103.486 E.68376
G1 X110.126 Y104.021 E.01681
G1 X124.979 Y118.874 E.65999
G1 X124.445 Y118.874 E.01678
G1 X110.126 Y104.555 E.63626
G1 X110.126 Y105.089 E.01678
M73 P28 R5
G1 X123.911 Y118.874 E.61253
G1 X123.376 Y118.874 E.01681
M73 Q28 S5
G1 X110.126 Y105.624 E.58876
G1 X110.126 Y106.158 E.01678
G1 X122.842 Y118.874 E.56503
G1 X122.308 Y118.874 E.01678
G1 X110.126 Y106.692 E.5413
G1 X110.126 Y107.227 E.01681
G1 X121.773 Y118.874 E.51753
G1 X121.239 Y118.874 E.01678
M73 P29 R5
G1 X110.126 Y107.761 E.4938
G1 X110.126 Y108.296 E.01681
M73 Q29 S5
G1 X120.704 Y118.874 E.47003
G1 X120.17 Y118.874 E.01678
G1 X110.126 Y108.83 E.4463
G1 X110.126 Y109.364 E.01678
G1 X119.636 Y118.874 E.42257
G1 X119.101 Y118.874 E.01681
G1 X110.126 Y109.899 E.3988
G1 X110.126 Y110.433 E.01678
G1 X118.567 Y118.874 E.37507
G1 X118.032 Y118.874 E.01681
M73 P30 R5
G1 X110.126 Y110.968 E.3513
G1 X110.126 Y111.502 E.01678
M73 Q30 S5
G1 X117.498 Y118.874 E.32757
G1 X116.964 Y118.874 E.01678
G1 X110.126 Y112.036 E.30384
G1 X110.126 Y112.571 E.01681
G1 X116.429 Y118.874 E.28007
G1 X115.895 Y118.874 E.01678
G1 X110.126 Y113.105 E.25634
G1 X110.126 Y113.64 E.01681
G1 X115.36 Y118.874 E.23257
G1 X114.826 Y118.874 E.01678
G1 X110.126 Y114.174 E.20884
G1 X110.126 Y114.708 E.01678
G1 X114.292 Y118.874 E.18511
G1 X113.757 Y118.874 E.01681
G1 X110.126 Y115.243 E.16134
G1 X110.126 Y115.777 E.01678
G1 X113.223 Y118.874 E.13761
G1 X112.689 Y118.874 E.01678
M73 P31 R5
G1 X110.126 Y116.311 E.11389
G1 X110.126 Y116.846 E.01681
G1 X112.154 Y118.874 E.09011
G1 X111.62 Y118.874 E.01678
G1 X110.126 Y117.38 E.06639
G1 X110.126 Y117.915 E.01681
M73 Q31 S5
G1 X111.085 Y118.874 E.04261
G1 X110.551 Y118.874 E.01678
G1 X109.957 Y118.279 E.02642
M204 S1000
M106 S84.15
;LAYER_CHANGE
;Z:0.5
;HEIGHT:0.3
;BEFORE_LAYER_CHANGE
G92 E0.0
;0.5


;WIPE_START
G1 F8640
G1 X110.551 Y118.874 E-.19413
G1 X111.085 Y118.874 E-.1233
G1 X110.126 Y117.915 E-.31316
G1 X110.126 Y117.38 E-.12353
G1 X110.266 Y117.52 E-.04588
;WIPE_END
G1 Z.5 F720
;AFTER_LAYER_CHANGE
;0.5
M104 S210 ; set temperature
; stop printing object wireGuide id:0 copy 0
G1 Z.9
G1 X106.811 Y118.279 F10800
G1 Z.5 F720
G1 E.8 F2100
;TYPE:Skirt/Brim
;WIDTH:0.42
G1 F2700
G1 X106.811 Y90 E1.25431
G1 X107.202 Y88.752 E.05801
G1 X108.235 Y87.949 E.05803
G1 X109 Y87.811 E.03448
G1 X141 Y87.811 E1.41935
G1 X142.248 Y88.202 E.05801
G1 X143.051 Y89.235 E.05803
G1 X143.189 Y90 E.03448
G1 X143.189 Y120 E1.33064
G1 X142.798 Y121.248 E.05801
G1 X141.765 Y122.051 E.05803
G1 X141 Y122.189 E.03448
G1 X109 Y122.189 E1.41935
G1 X107.752 Y121.798 E.05801
G1 X106.949 Y120.765 E.05803
G1 X106.811 Y120 E.03448
G1 X106.811 Y118.339 E.07367
;WIPE_START
G1 F8640
M73 P32 R5
G1 X106.811 Y118.279 E-.01385
G1 X106.811 Y114.874 E-.78615
;WIPE_END
G1 Z.9 F720
; printing object wireGuide id:0 copy 0
G1 X140.214 Y119.214 F10800
G1 Z.5 F720
M73 Q32 S5
G1 E.8 F2100
M204 S800
;TYPE:Perimeter
;WIDTH:0.5
G1 F3000
G1 X109.786 Y119.214 E1.65324
G1 X109.786 Y90.786 E1.54457
G1 X140.214 Y90.786 E1.65324
G1 X140.214 Y119.154 E1.54131
M204 S1000
G1 X140.7 Y119.7 F10800
M204 S800
;TYPE:External perimeter
;WIDTH:0.6
G1 F2099.997
G1 X109.3 Y119.7 E2.09769
G1 X109.3 Y90.3 E1.96408
G1 X140.7 Y90.3 E2.09769
M73 P33 R5
M73 Q33 S5
G1 X140.7 Y119.64 E1.96007
M204 S1000
;WIPE_START
G1 F8640
G1 X140.7 Y119.7 E-.01385
G1 X137.295 Y119.7 E-.78615
;WIPE_END
G1 Z.9 F720
G1 X110.296 Y91.213 F10800
G1 Z.5 F720
G1 E.8 F2100
;TYPE:Solid infill
;WIDTH:0.605691
G1 F4800
G1 X110.248 Y91.165 E.00458
G1 X110.183 Y91.183 E.00455
G1 X110.165 Y91.248 E.00455
G1 X110.213 Y91.296 E.00458
G1 X110.278 Y91.278 E.00455
;WIDTH:0.5
G1 X110.178 Y91.974 E.0382
G1 X110.974 Y91.178 E.06116
G1 X111.073 Y91.1 E.00685
;WIDTH:0.45219
G1 X111.171 Y91.022 E.00606
;WIDTH:0.404381
G1 X111.13 Y91.033 E.0018
G1 X111.111 Y90.962 E.00312
G1 X111.182 Y90.981 E.00312
;WIDTH:0.5
G1 X111.59 Y91.178 E.02462
G1 X110.178 Y92.59 E.1085
G1 X110.178 Y93.206 E.03347
G1 X112.206 Y91.178 E.15583
G1 X112.822 Y91.178 E.03347
G1 X110.178 Y93.822 E.20316
M73 P33 R4
G1 X110.178 Y94.438 E.03347
G1 X113.438 Y91.178 E.25049
G1 X114.054 Y91.178 E.03347
G1 X110.178 Y95.054 E.29782
G1 X110.178 Y95.671 E.03352
G1 X114.671 Y91.178 E.34523
G1 X115.287 Y91.178 E.03347
G1 X110.178 Y96.287 E.39257
G1 X110.178 Y96.903 E.03347
G1 X115.903 Y91.178 E.4399
G1 X116.519 Y91.178 E.03347
G1 X110.178 Y97.519 E.48723
G1 X110.178 Y98.135 E.03347
M73 P34 R4
G1 X117.135 Y91.178 E.53456
G1 X117.751 Y91.178 E.03347
G1 X110.178 Y98.751 E.5819
G1 X110.178 Y99.367 E.03347
M73 Q34 S5
G1 X118.367 Y91.178 E.62923
G1 X118.983 Y91.178 E.03347
G1 X110.178 Y99.983 E.67656
G1 X110.178 Y100.599 E.03347
G1 X119.599 Y91.178 E.72389
G1 X120.215 Y91.178 E.03347
G1 X110.178 Y101.215 E.77122
G1 X110.178 Y101.831 E.03347
M73 Q34 S4
G1 X120.831 Y91.178 E.81856
G1 X121.447 Y91.178 E.03347
G1 X110.178 Y102.447 E.86589
G1 X110.178 Y103.063 E.03347
G1 X122.063 Y91.178 E.91322
G1 X122.679 Y91.178 E.03347
G1 X110.178 Y103.679 E.96055
G1 X110.178 Y104.295 E.03347
G1 X123.295 Y91.178 E1.00789
G1 X123.911 Y91.178 E.03347
G1 X110.178 Y104.911 E1.05522
G1 X110.178 Y105.527 E.03347
G1 X124.527 Y91.178 E1.10255
G1 X125.144 Y91.178 E.03352
G1 X110.178 Y106.144 E1.14996
G1 X110.178 Y106.76 E.03347
G1 X125.76 Y91.178 E1.19729
G1 X126.376 Y91.178 E.03347
G1 X110.178 Y107.376 E1.24462
M73 P35 R4
G1 X110.178 Y107.992 E.03347
G1 X126.992 Y91.178 E1.29196
G1 X127.608 Y91.178 E.03347
M73 Q35 S4
G1 X110.178 Y108.608 E1.33929
G1 X110.178 Y109.224 E.03347
G1 X128.224 Y91.178 E1.38662
G1 X128.84 Y91.178 E.03347
G1 X110.178 Y109.84 E1.43395
G1 X110.178 Y110.456 E.03347
G1 X129.456 Y91.178 E1.48129
G1 X130.072 Y91.178 E.03347
G1 X110.178 Y111.072 E1.52862
G1 X110.178 Y111.688 E.03347
G1 X130.688 Y91.178 E1.57595
G1 X131.304 Y91.178 E.03347
G1 X110.178 Y112.304 E1.62328
G1 X110.178 Y112.92 E.03347
G1 X131.92 Y91.178 E1.67062
G1 X132.536 Y91.178 E.03347
G1 X110.178 Y113.536 E1.71795
G1 X110.178 Y114.152 E.03347
M73 P36 R4
G1 X133.152 Y91.178 E1.76528
G1 X133.768 Y91.178 E.03347
M73 Q36 S4
G1 X110.178 Y114.768 E1.81261
G1 X110.178 Y115.384 E.03347
G1 X134.384 Y91.178 E1.85995
G1 X135 Y91.178 E.03347
G1 X110.178 Y116 E1.90728
G1 X110.178 Y116.617 E.03352
G1 X135.617 Y91.178 E1.95469
G1 X136.233 Y91.178 E.03347
G1 X110.178 Y117.233 E2.00202
G1 X110.178 Y117.849 E.03347
G1 X136.849 Y91.178 E2.04935
G1 X137.465 Y91.178 E.03347
G1 X110.178 Y118.465 E2.09668
G1 X110.115 Y118.946 E.02636
M73 P37 R4
;WIDTH:0.404381
G1 X110.073 Y118.957 E.00184
G1 X110.054 Y118.886 E.00312
G1 X110.126 Y118.905 E.00316
;WIDTH:0.45219
G1 X110.281 Y118.863 E.00777
;WIDTH:0.5
G1 X110.436 Y118.822 E.00871
G1 X138.081 Y91.178 E2.12415
G1 X138.697 Y91.178 E.03347
M73 Q37 S4
G1 X111.052 Y118.822 E2.12415
G1 X111.668 Y118.822 E.03347
G1 X139.313 Y91.178 E2.12415
G1 X139.999 Y91.031 E.03812
;WIDTH:0.404381
G1 X139.928 Y91.012 E.00312
G1 X139.947 Y91.083 E.00312
G1 X139.988 Y91.072 E.0018
;WIDTH:0.45219
G1 X139.905 Y91.178 E.00651
;WIDTH:0.5
G1 X139.822 Y91.284 E.00731
G1 X112.284 Y118.822 E2.11597
G1 X112.9 Y118.822 E.03347
G1 X139.822 Y91.9 E2.06864
G1 X139.822 Y92.516 E.03347
G1 X113.516 Y118.822 E2.02131
G1 X114.132 Y118.822 E.03347
G1 X139.822 Y93.132 E1.97397
G1 X139.822 Y93.749 E.03352
G1 X114.748 Y118.822 E1.9266
G1 X115.365 Y118.822 E.03352
M73 P38 R4
G1 X139.822 Y94.365 E1.87923
G1 X139.822 Y94.981 E.03347
M73 Q38 S4
G1 X115.981 Y118.822 E1.8319
G1 X116.597 Y118.822 E.03347
G1 X139.822 Y95.597 E1.78457
G1 X139.822 Y96.213 E.03347
G1 X117.213 Y118.822 E1.73723
G1 X117.829 Y118.822 E.03347
G1 X139.822 Y96.829 E1.6899
G1 X139.822 Y97.445 E.03347
G1 X118.445 Y118.822 E1.64257
G1 X119.061 Y118.822 E.03347
G1 X139.822 Y98.061 E1.59524
G1 X139.822 Y98.677 E.03347
G1 X119.677 Y118.822 E1.54791
G1 X120.293 Y118.822 E.03347
G1 X139.822 Y99.293 E1.50057
G1 X139.822 Y99.909 E.03347
G1 X120.909 Y118.822 E1.45324
M73 P39 R4
