; generated by PrusaSlicer 2.9.2 on 2025-05-24 at 16:20:23 UTC


;
;
; 

; external perimeters extrusion width = 0.45mm
; perimeters extrusion width = 0.45mm
; infill extrusion width = 0.45mm
; solid infill extrusion width = 0.45mm
; top infill extrusion width = 0.40mm
; first layer extrusion width = 0.42mm

M73 P0 R25
M73 Q0 S25
M201 X1000 Y1000 Z200 E5000 ; sets maximum accelerations, mm/sec^2
M203 X200 Y200 Z12 E120 ; sets maximum feedrates, mm / sec
M204 S1250 T1250 ; sets acceleration (S) and retract acceleration (R), mm/sec^2
M205 X8.00 Y8.00 Z0.40 E4.50 ; sets the jerk limits, mm/sec
M205 S0 T0 ; sets the minimum extruding and travel feed rate, mm/sec

; printing object wireGuide id:0 copy 0
; stop printing object wireGuide id:0 copy 0

;TYPE:Custom
M862.3 P "MK3S" ; printer model check
M862.1 P0.4 ; nozzle diameter check
M115 U3.14.1 ; tell printer latest fw version
G90 ; use absolute coordinates
M83 ; extruder relative mode
M104 S215 ; set extruder temp
M140 S60 ; set bed temp
M190 S60 ; wait for bed temp
M109 S215 ; wait for extruder temp
G28 W ; home all without mesh bed level
G80 X106.623 Y87.6229 W36.7542 H34.7542 ; mesh bed levelling

G1 Z0.2 F720
G1 Y-3 F1000 ; go outside print area
G92 E0
G1 X60 E9 F1000 ; intro line
G1 X100 E12.5 F1000 ; intro line

G92 E0
M221 S95

; Don't change E values below. Excessive value can damage the printer.
M907 E430 ; set extruder motor current
G21 ; set units to millimeters
G90 ; use absolute coordinates
M83 ; use relative distances for extrusion

M900 K0.05 ; Filament gcode LA 1.5
M900 K30 ; Filament gcode LA 1.0




M107
;LAYER_CHANGE
;Z:0.2
;HEIGHT:0.2
G1 E-.8 F2100
G1 Z.6 F720
G1 X107.202 Y88.752 F10800
G1 Z.2 F720
G1 E.8 F2100
M204 S800
;TYPE:Skirt/Brim
;WIDTH:0.42
G1 F1200
G1 X108.235 Y87.949 E.04102
G1 X109 Y87.811 E.02437
G1 X141 Y87.811 E1.00334
G1 X142.248 Y88.202 E.04101
G1 X143.051 Y89.235 E.04102
G1 X143.189 Y90 E.02437
G1 X143.189 Y120 E.94063
G1 X142.798 Y121.248 E.04101
G1 X141.765 Y122.051 E.04102
G1 X141 Y122.189 E.02437
G1 X109 Y122.189 E1.00334
G1 X107.752 Y121.798 E.04101
G1 X106.949 Y120.765 E.04102
G1 X106.811 Y120 E.02437
G1 X106.811 Y90 E.94063
G1 X107.184 Y88.809 E.03913
M204 S1000
;WIPE_START
G1 F8640
G1 X107.202 Y88.752 E-.0138
G1 X108.235 Y87.949 E-.30211
G1 X109 Y87.811 E-.17949
G1 X110.319 Y87.811 E-.3046
;WIPE_END
G1 Z.6 F720
; printing object wireGuide id:0 copy 0
G1 X135.234 Y92.915 F10800
G1 Z.2 F720
G1 E.8 F2100
M204 S800
;TYPE:Perimeter
;WIDTH:0.419999
G1 F1200
G1 X135.301 Y92.687 E.00745
G1 X135.504 Y92.321 E.01312
G1 X135.691 Y92.081 E.00954
G1 X136.067 Y91.745 E.01581
;WIDTH:0.452786
G1 X136.376 Y91.572 E.01207
;WIDTH:0.485573
G1 X136.686 Y91.399 E.01307
;WIDTH:0.511933
G1 X136.746 Y91.369 E.00262
;WIDTH:0.538292
G1 X136.807 Y91.339 E.0028
G1 X137.343 Y91.281 E.02221
;WIDTH:0.520483
G1 X137.808 Y91.308 E.0185
G1 X138.026 Y91.401 E.00941
;WIDTH:0.486989
G1 X138.245 Y91.494 E.00879
;WIDTH:0.453494
G1 X138.463 Y91.587 E.00809
;WIDTH:0.419999
G1 X138.897 Y91.888 E.01656
G1 X139.283 Y92.321 E.01819
M73 Q1 S25
G1 X139.48 Y92.673 E.01265
;WIDTH:0.463737
G1 X139.594 Y93.01 E.01245
;WIDTH:0.507475
G1 X139.708 Y93.347 E.01374
G1 X139.708 Y93.864 E.01997
;WIDTH:0.507226
G1 X139.554 Y94.28 E.01713
;WIDTH:0.463613
G1 X139.4 Y94.697 E.01555
;WIDTH:0.419999
G1 X139.098 Y95.13 E.01655
G1 X138.783 Y95.419 E.0134
G1 X138.285 Y95.711 E.0181
G1 X137.901 Y95.835 E.01265
G1 X137.459 Y95.889 E.01396
G1 X136.904 Y95.839 E.01747
M73 P1 R25
G1 X136.516 Y95.717 E.01275
G1 X136.142 Y95.519 E.01327
G1 X135.825 Y95.269 E.01266
G1 X135.546 Y94.949 E.01331
G1 X135.273 Y94.459 E.01759
G1 X135.152 Y94.053 E.01328
G1 X135.108 Y93.652 E.01265
G1 X135.141 Y93.228 E.01333
G1 X135.217 Y92.972 E.00837
M204 S1000
G1 X135.589 Y93.028 F10800
M204 S800
;TYPE:External perimeter
G1 F1200
G1 X135.635 Y92.862 E.0054
G1 X135.801 Y92.553 E.011
G1 X135.988 Y92.313 E.00954
G1 X136.265 Y92.066 E.01164
G1 X136.553 Y91.892 E.01055
G1 X136.876 Y91.769 E.01084
G1 X137.355 Y91.698 E.01518
G1 X137.705 Y91.723 E.011
G1 X138.032 Y91.807 E.01059
G1 X138.339 Y91.947 E.01058
G1 X138.71 Y92.24 E.01482
G1 X138.958 Y92.512 E.01154
G1 X139.126 Y92.804 E.01056
G1 X139.24 Y93.122 E.01059
G1 X139.297 Y93.454 E.01056
G1 X139.294 Y93.792 E.0106
G1 X139.229 Y94.131 E.01082
G1 X139.032 Y94.587 E.01557
G1 X138.834 Y94.86 E.01057
G1 X138.584 Y95.098 E.01082
G1 X138.162 Y95.355 E.01549
G1 X137.844 Y95.462 E.01052
G1 X137.484 Y95.513 E.0114
G1 X137.009 Y95.477 E.01494
G1 X136.685 Y95.38 E.0106
G1 X136.369 Y95.218 E.01113
G1 X136.102 Y95.013 E.01055
G1 X135.871 Y94.758 E.01079
G1 X135.632 Y94.343 E.01502
G1 X135.526 Y94.004 E.01114
G1 X135.485 Y93.67 E.01055
G1 X135.505 Y93.327 E.01077
G1 X135.573 Y93.086 E.00785
M204 S1000
;WIPE_START
G1 F8640
G1 X135.589 Y93.028 E-.01389
G1 X135.635 Y92.862 E-.03977
G1 X135.801 Y92.553 E-.08099
G1 X135.988 Y92.313 E-.07025
G1 X136.265 Y92.066 E-.0857
G1 X136.553 Y91.892 E-.07769
G1 X136.876 Y91.769 E-.07981
G1 X137.355 Y91.698 E-.11181
G1 X137.705 Y91.723 E-.08102
G1 X138.032 Y91.807 E-.07796
G1 X138.339 Y91.947 E-.07791
G1 X138.35 Y91.956 E-.0032
;WIPE_END
G1 Z.6 F720
G1 X114.461 Y117.716 F10800
G1 Z.2 F720
M73 P1 R24
G1 E.8 F2100
M204 S800
;TYPE:Perimeter
G1 F1200
G1 X114.31 Y117.917 E.00788
G1 X113.996 Y118.206 E.01338
G1 X113.508 Y118.493 E.01775
;WIDTH:0.456022
G1 X113.378 Y118.554 E.00493
;WIDTH:0.492045
G1 X113.248 Y118.615 E.00536
;WIDTH:0.528067
G1 X113.117 Y118.677 E.00585
G1 X112.681 Y118.716 E.01766
;WIDTH:0.515472
G1 X112.225 Y118.693 E.01794
G1 X111.973 Y118.597 E.0106
;WIDTH:0.467736
G1 X111.721 Y118.5 E.00954
;WIDTH:0.419999
G1 X111.364 Y118.312 E.01265
G1 X111.009 Y118.024 E.01433
G1 X110.776 Y117.763 E.01097
G1 X110.562 Y117.409 E.01297
;WIDTH:0.454993
G1 X110.481 Y117.232 E.00667
;WIDTH:0.489987
G1 X110.399 Y117.055 E.00725
;WIDTH:0.524981
G1 X110.318 Y116.878 E.0078
G1 X110.285 Y116.55 E.01321
;WIDTH:0.519734
G1 X110.306 Y116.006 E.02158
G1 X110.41 Y115.741 E.01129
;WIDTH:0.469867
G1 X110.514 Y115.476 E.01011
;WIDTH:0.419999
G1 X110.716 Y115.108 E.01316
G1 X110.972 Y114.796 E.01265
G1 X111.279 Y114.533 E.01267
G1 X111.627 Y114.328 E.01266
G1 X112.029 Y114.184 E.01339
G1 X112.59 Y114.108 E.01775
G1 X113.008 Y114.143 E.01315
G1 X113.398 Y114.249 E.01267
G1 X113.764 Y114.422 E.01269
G1 X114.092 Y114.657 E.01265
G1 X114.375 Y114.945 E.01266
G1 X114.612 Y115.302 E.01344
G1 X114.825 Y115.842 E.0182
G1 X114.887 Y116.244 E.01275
G1 X114.876 Y116.66 E.01305
G1 X114.789 Y117.064 E.01296
G1 X114.552 Y117.594 E.0182
G1 X114.497 Y117.668 E.00289
M204 S1000
G1 X114.155 Y117.498 F10800
M204 S800
;TYPE:External perimeter
G1 F1200
G1 X114.046 Y117.648 E.00581
G1 X113.797 Y117.886 E.0108
G1 X113.384 Y118.137 E.01515
G1 X113.051 Y118.251 E.01104
G1 X112.709 Y118.299 E.01083
G1 X112.213 Y118.262 E.01559
G1 X111.89 Y118.163 E.01059
G1 X111.589 Y118.009 E.0106
G1 X111.284 Y117.766 E.01223
G1 X110.934 Y117.314 E.01792
G1 X110.75 Y116.838 E.016
G1 X110.7 Y116.495 E.01087
G1 X110.718 Y116.117 E.01187
G1 X110.848 Y115.651 E.01517
G1 X111.013 Y115.341 E.01101
G1 X111.224 Y115.077 E.0106
G1 X111.477 Y114.854 E.01057
G1 X111.766 Y114.679 E.01059
G1 X112.088 Y114.556 E.01081
G1 X112.567 Y114.485 E.01518
G1 X112.918 Y114.509 E.01103
G1 X113.244 Y114.593 E.01056
G1 X113.551 Y114.734 E.01059
G1 X113.829 Y114.926 E.01059
G1 X114.068 Y115.164 E.01058
G1 X114.265 Y115.448 E.01084
G1 X114.454 Y115.908 E.01559
G1 X114.51 Y116.242 E.01062
G1 X114.505 Y116.592 E.01098
G1 X114.442 Y116.918 E.01041
G1 X114.245 Y117.375 E.0156
G1 X114.191 Y117.449 E.00287
M204 S1000
;WIPE_START
G1 F8640
G1 X114.155 Y117.498 E-.01404
G1 X114.046 Y117.648 E-.04281
G1 X113.797 Y117.886 E-.07953
G1 X113.384 Y118.137 E-.11159
G1 X113.051 Y118.251 E-.08127
G1 X112.709 Y118.299 E-.07974
G1 X112.213 Y118.262 E-.11485
G1 X111.89 Y118.163 E-.07801
G1 X111.589 Y118.009 E-.07807
G1 X111.284 Y117.766 E-.09004
G1 X111.204 Y117.663 E-.03005
;WIPE_END
G1 Z.6 F720
G1 X140.213 Y90.787 F10800
G1 Z.2 F720
G1 E.8 F2100
M204 S800
;TYPE:Perimeter
G1 F1200
G1 X140.213 Y91.497 E.02226
G1 X140.213 Y92.542 E.03277
;WIDTH:0.463737
G1 X140.191 Y92.924 E.01339
;WIDTH:0.507475
G1 X140.169 Y93.306 E.01478
G1 X140.17 Y93.907 E.02322
;WIDTH:0.506639
G1 X140.191 Y94.156 E.00964
;WIDTH:0.463319
G1 X140.213 Y94.405 E.00874
;WIDTH:0.419999
G1 X140.213 Y119.213 E.77784
G1 X113.84 Y119.213 E.82691
;WIDTH:0.456467
G1 X113.617 Y119.195 E.00769
;WIDTH:0.492935
G1 X113.394 Y119.176 E.00837
;WIDTH:0.529402
G1 X113.171 Y119.158 E.00905
G1 X112.666 Y119.173 E.02044
;WIDTH:0.500379
G1 X112.191 Y119.193 E.01808
;WIDTH:0.460189
G1 X111.716 Y119.213 E.0165
;WIDTH:0.419999
G1 X109.787 Y119.213 E.06048
G1 X109.787 Y117.55 E.05214
;WIDTH:0.454095
G1 X109.804 Y117.328 E.00761
;WIDTH:0.488191
G1 X109.821 Y117.106 E.00824
;WIDTH:0.522287
G1 X109.838 Y116.885 E.00883
G1 X109.83 Y116.129 E.03014
;WIDTH:0.505509
G1 X109.808 Y115.815 E.01211
;WIDTH:0.462754
G1 X109.787 Y115.501 E.01099
;WIDTH:0.419999
G1 X109.787 Y90.787 E.77489
G1 X136.272 Y90.787 E.83042
;WIDTH:0.45943
G1 X136.437 Y90.807 E.00576
M73 Q1 S24
;WIDTH:0.498861
G1 X136.603 Y90.827 E.00634
;WIDTH:0.538292
G1 X136.768 Y90.846 E.00684
G1 X137.711 Y90.831 E.03885
;WIDTH:0.508662
G1 X138.02 Y90.809 E.012
;WIDTH:0.464331
G1 X138.33 Y90.787 E.01089
;WIDTH:0.419999
G1 X140.153 Y90.787 E.05716
M204 S1000
G1 X140.59 Y90.41 F10800
M204 S800
;TYPE:External perimeter
G1 F1200
G1 X140.59 Y91.497 E.03408
G1 X140.59 Y119.59 E.88083
G1 X109.41 Y119.59 E.97763
G1 X109.41 Y90.41 E.91492
G1 X140.53 Y90.41 E.97574
M204 S1000
;WIPE_START
G1 F8640
M73 P2 R24
M73 Q2 S24
G1 X140.59 Y90.41 E-.01385
G1 X140.59 Y91.497 E-.25099
G1 X140.59 Y93.815 E-.53516
;WIPE_END
G1 Z.6 F720
G1 X140.043 Y91.829 F10800
G1 Z.2 F720
G1 E.8 F2100
M204 S800
;TYPE:Solid infill
;WIDTH:0.471996
G1 F1200
G1 X139.34 Y91.126 E.03547
G1 X138.734 Y91.126 E.02162
G1 X140.043 Y92.436 E.06607
M204 S1000
;WIPE_START
G1 F8640
G1 X138.734 Y91.126 E-.42761
G1 X139.34 Y91.126 E-.13993
G1 X140.043 Y91.829 E-.22956
;WIPE_END
G1 E-.0029 F2100
G1 Z.6 F720
G1 X136.034 Y90.957 F10800
G1 Z.2 F720
G1 E.8 F2100
M204 S800
;WIDTH:0.421064
G1 F1200
G1 X136.29 Y91.212 E.01136
G1 X135.963 Y91.421 E.0122
G1 X135.669 Y91.126 E.0131
G1 X135.134 Y91.126 E.01682
G1 X135.657 Y91.65 E.02328
G1 X135.389 Y91.916 E.01187
G1 X134.599 Y91.126 E.03513
G1 X134.064 Y91.126 E.01682
G1 X135.168 Y92.23 E.04909
G1 X134.981 Y92.578 E.01242
G1 X133.53 Y91.126 E.06454
G1 X132.995 Y91.126 E.01682
G1 X134.855 Y92.987 E.08273
G1 X134.81 Y93.153 E.00541
G1 X134.785 Y93.451 E.0094
G1 X132.46 Y91.126 E.10339
G1 X131.925 Y91.126 E.01682
G1 X135.029 Y94.231 E.13805
M204 S1000
;WIPE_START
G1 F8640
G1 X132.58 Y91.781 E-.8
;WIPE_END
G1 Z.6 F720
G1 X139.64 Y94.563 F10800
G1 Z.2 F720
G1 E.8 F2100
M204 S800
G1 F1200
G1 X139.874 Y94.796 E.01038
G1 X139.874 Y95.331 E.01682
G1 X139.585 Y95.043 E.01283
G1 X139.356 Y95.348 E.01199
G1 X139.874 Y95.866 E.02303
G1 X139.874 Y96.401 E.01682
G1 X139.078 Y95.605 E.0354
G1 X138.973 Y95.7 E.00445
G1 X138.766 Y95.828 E.00765
G1 X139.874 Y96.936 E.04927
G1 X139.874 Y97.47 E.01679
G1 X138.423 Y96.02 E.0645
G1 X138.019 Y96.151 E.01335
G1 X139.874 Y98.005 E.08246
G1 X139.874 Y98.54 E.01682
G1 X137.551 Y96.217 E.1033
G1 X137.45 Y96.229 E.0032
G1 X136.997 Y96.199 E.01427
G1 X139.874 Y99.075 E.12791
G1 X139.874 Y99.609 E.01679
G1 X131.391 Y91.126 E.37721
G1 X130.856 Y91.126 E.01682
G1 X139.874 Y100.144 E.401
G1 X139.874 Y100.679 E.01682
G1 X130.321 Y91.126 E.42479
G1 X129.786 Y91.126 E.01682
G1 X139.874 Y101.214 E.44858
G1 X139.874 Y101.749 E.01682
G1 X129.251 Y91.126 E.47237
G1 X128.717 Y91.126 E.01679
G1 X139.874 Y102.283 E.49612
G1 X139.874 Y102.818 E.01682
G1 X128.182 Y91.126 E.51991
G1 X127.647 Y91.126 E.01682
G1 X139.874 Y103.353 E.5437
G1 X139.874 Y103.888 E.01682
G1 X127.112 Y91.126 E.56749
G1 X126.578 Y91.126 E.01679
G1 X139.874 Y104.422 E.59123
G1 X139.874 Y104.957 E.01682
G1 X126.043 Y91.126 E.61502
G1 X125.508 Y91.126 E.01682
G1 X139.874 Y105.492 E.63881
G1 X139.874 Y106.027 E.01682
G1 X124.973 Y91.126 E.6626
G1 X124.438 Y91.126 E.01682
M73 P3 R24
M73 Q3 S24
G1 X139.874 Y106.562 E.68639
G1 X139.874 Y107.096 E.01679
G1 X123.904 Y91.126 E.71014
G1 X123.369 Y91.126 E.01682
G1 X139.874 Y107.631 E.73393
G1 X139.874 Y108.166 E.01682
G1 X122.834 Y91.126 E.75771
G1 X122.299 Y91.126 E.01682
G1 X139.874 Y108.701 E.7815
G1 X139.874 Y109.235 E.01679
G1 X121.765 Y91.126 E.80525
G1 X121.23 Y91.126 E.01682
G1 X139.874 Y109.77 E.82904
G1 X139.874 Y110.305 E.01682
G1 X120.695 Y91.126 E.85283
G1 X120.16 Y91.126 E.01682
G1 X139.874 Y110.84 E.87662
G1 X139.874 Y111.375 E.01682
G1 X119.625 Y91.126 E.90041
G1 X119.091 Y91.126 E.01679
G1 X139.874 Y111.909 E.92415
G1 X139.874 Y112.444 E.01682
G1 X118.556 Y91.126 E.94794
G1 X118.021 Y91.126 E.01682
M73 P4 R24
M73 Q4 S24
G1 X139.874 Y112.979 E.97173
G1 X139.874 Y113.514 E.01682
G1 X117.486 Y91.126 E.99552
G1 X116.952 Y91.126 E.01679
G1 X139.874 Y114.048 E1.01927
G1 X139.874 Y114.583 E.01682
G1 X116.417 Y91.126 E1.04306
G1 X115.882 Y91.126 E.01682
G1 X139.874 Y115.118 E1.06685
G1 X139.874 Y115.653 E.01682
G1 X115.347 Y91.126 E1.09064
G1 X114.813 Y91.126 E.01679
G1 X139.874 Y116.187 E1.11438
G1 X139.874 Y116.722 E.01682
G1 X114.278 Y91.126 E1.13817
G1 X113.743 Y91.126 E.01682
G1 X139.874 Y117.257 E1.16196
G1 X139.874 Y117.792 E.01682
M73 P5 R23
M73 Q5 S24
G1 X113.208 Y91.126 E1.18575
G1 X112.673 Y91.126 E.01682
G1 X139.874 Y118.327 E1.20954
G1 X139.874 Y118.861 E.01679
G1 X112.139 Y91.126 E1.23329
G1 X111.604 Y91.126 E.01682
G1 X139.351 Y118.874 E1.23384
G1 X138.816 Y118.874 E.01682
M73 Q5 S23
G1 X111.069 Y91.126 E1.23384
G1 X110.534 Y91.126 E.01682
G1 X138.281 Y118.874 E1.23384
G1 X137.747 Y118.874 E.01679
G1 X110.126 Y91.253 E1.22822
G1 X110.126 Y91.788 E.01682
M73 P6 R23
M73 Q6 S23
G1 X137.212 Y118.874 E1.20443
G1 X136.677 Y118.874 E.01682
G1 X110.126 Y92.323 E1.18064
G1 X110.126 Y92.858 E.01682
G1 X136.142 Y118.874 E1.15685
G1 X135.608 Y118.874 E.01679
G1 X110.126 Y93.392 E1.1331
G1 X110.126 Y93.927 E.01682
G1 X135.073 Y118.874 E1.10931
G1 X134.538 Y118.874 E.01682
G1 X110.126 Y94.462 E1.08552
G1 X110.126 Y94.997 E.01682
G1 X134.003 Y118.874 E1.06173
G1 X133.468 Y118.874 E.01682
G1 X110.126 Y95.532 E1.03794
G1 X110.126 Y96.066 E.01679
G1 X132.934 Y118.874 E1.0142
G1 X132.399 Y118.874 E.01682
M73 P7 R23
M73 Q7 S23
G1 X110.126 Y96.601 E.99041
G1 X110.126 Y97.136 E.01682
G1 X131.864 Y118.874 E.96662
G1 X131.329 Y118.874 E.01682
G1 X110.126 Y97.671 E.94283
G1 X110.126 Y98.205 E.01679
G1 X130.795 Y118.874 E.91909
G1 X130.26 Y118.874 E.01682
G1 X110.126 Y98.74 E.8953
G1 X110.126 Y99.275 E.01682
G1 X129.725 Y118.874 E.87151
G1 X129.19 Y118.874 E.01682
G1 X110.126 Y99.81 E.84772
G1 X110.126 Y100.345 E.01682
G1 X128.655 Y118.874 E.82393
G1 X128.121 Y118.874 E.01679
G1 X110.126 Y100.879 E.80018
G1 X110.126 Y101.414 E.01682
G1 X127.586 Y118.874 E.77639
G1 X127.051 Y118.874 E.01682
M73 P8 R23
M73 Q8 S23
G1 X110.126 Y101.949 E.7526
G1 X110.126 Y102.484 E.01682
G1 X126.516 Y118.874 E.72881
G1 X125.982 Y118.874 E.01679
G1 X110.126 Y103.018 E.70507
G1 X110.126 Y103.553 E.01682
G1 X125.447 Y118.874 E.68128
G1 X124.912 Y118.874 E.01682
G1 X110.126 Y104.088 E.65749
G1 X110.126 Y104.623 E.01682
G1 X124.377 Y118.874 E.6337
G1 X123.842 Y118.874 E.01682
G1 X110.126 Y105.158 E.60991
G1 X110.126 Y105.692 E.01679
G1 X123.308 Y118.874 E.58616
G1 X122.773 Y118.874 E.01682
G1 X110.126 Y106.227 E.56237
G1 X110.126 Y106.762 E.01682
G1 X122.238 Y118.874 E.53858
G1 X121.703 Y118.874 E.01682
G1 X110.126 Y107.297 E.51479
G1 X110.126 Y107.831 E.01679
G1 X121.169 Y118.874 E.49105
G1 X120.634 Y118.874 E.01682
G1 X110.126 Y108.366 E.46726
G1 X110.126 Y108.901 E.01682
G1 X120.099 Y118.874 E.44347
G1 X119.564 Y118.874 E.01682
G1 X110.126 Y109.436 E.41968
G1 X110.126 Y109.971 E.01682
M73 P9 R22
M73 Q9 S23
G1 X119.029 Y118.874 E.39589
G1 X118.495 Y118.874 E.01679
G1 X115.022 Y115.401 E.15443
G1 X114.832 Y115.002 E.0139
G1 X114.606 Y114.689 E.01214
G1 X114.27 Y114.359 E.01481
G1 X113.826 Y114.069 E.01667
G1 X113.58 Y113.959 E.00847
G1 X110.126 Y110.505 E.15359
